X:1
T:Drei Männerchöre
T:Wohl dem, der den Herren fürchtet
T:Cyrill Kistler
T:Nach Ps. 128
T:Wohl dem, der den Herren fürchtet
T:Motette, Op. 42, No. 3
T:CPDL   —   Creative Commons Attribution Non Commercial 3.0
T:CPDL   —   Creative Commons Attribution Non Commercial 3.0
T:CPDL   —   Creative Commons Attribution Non Commercial 3.0
T:CPDL   —   Creative Commons Attribution Non Commercial 3.0
T:CPDL   —   Creative Commons Attribution Non Commercial 3.0
C:Cyrill Kistler
Z:CPDL   —   Creative Commons Attribution Non Commercial 3.0
%%score [ ( 1 2 ) ( 3 4 ) 5 ]
L:1/8
Q:1/4=80
M:4/4
K:Ab
V:1 treble-8 nm="Tenor"
V:2 treble-8 
V:3 bass nm="Bass\n1"
V:4 bass 
V:5 bass nm="Bass\n2"
V:1
"^Larghetto"!mf! c4 f4 | B4 e4 | A2 Bc d2 d2 | d4 c2 c2 | (c2 f2)!<(! a2 g2 | f>e e4!<)! ed | %6
w: Wohl dem,|wohl dem,|der den _ Her- ren|fürch- tet und|auf _ sei- nen|We- gen geht, und _|
!<(! (c2 d2) f2 e2!<)! | d>c c2 z2 c2 | c4 =d2 d2 | =d3 e d2!f! g2 | g4 f2 c2 | e6 =d2 | c4 z4 | %13
w: auf _ sei- nen|We- gen geht, und|auf sei- nen|We- gen geht, und|auf sei- nen|We- gen|geht.|
 z8 | z8 | z4 z2"^Tenor"!f! B2 | e4 =d2 c2 | f4 e2 ef | g2 f_e _d2 c2 | (c2 a2 g2) c2 | c6 f2 | %21
w: ||Der|Herr wird ihn|seg- nen, dass er|se- he das Glück sein|Le- * * ben|lang, sein|
 (f2 ga) (g2 f2) | e4!f! e4 | (e4 e2) f2 | g4 a2 a2 | (a2 gf) e2 _d2 | (d3 c) c2 z2 |!pp! c4 =A4 | %28
w: Le- * * ben _|lang. Der|Herr, _ der|Herr wird ihn|seg- * * nen, ihn|seg- * nen.|Wohl dem,|
 =d4 c4 |!<(! f3 f =e2 =d2 | =d4 ^c4!<)! |!p! _d6 d2 | (c2 e2) (g2 f2) | (e4 =d4) |{/e} e2 z2 z4 | %35
w: wohl dem,|der den Her- ren|fürch- tet,|der den|Her- * ren _|fürch- *|tet.|
!mf! c4 f4 | B4 e4 | A2 Bc d2 d2 | d3 d c2!<(! c2 | (c2 f2) (a2 g2)!<)! | (f4 e2) e2 | A4 A4 | %42
w: Wohl dem,|wohl dem,|er hat es gut, er|hat es gut, er|hat _ es _|gut, _ er|hat es|
 (B4 A4) | (B2 cd) e2 e2 | A4 z4 |!p! d8 |"^dim.""^dim." c8 | B8 | A8 |] %49
w: gut! _|Er _ _ hat es|gut!|Wohl|ihm,|wohl|ihm.|
V:2
 c6 _c2 | B4 (B2 =A2) | _A2 A2 A2 A2 | B4 A2 B2 | A4 c2 c2 | d>d d4 B2 | A4 A2 A2 | B>B B2 x2 G2 | %8
w: ||||||||
 (F2 c2) B2 =A2 | G3 G G2 =B2 | c4 c2 c2 | =B6 B2 | c4 x4 | x8 | x8 | x4 x2 A2 | (G2 B2) A2 A2 | %17
w: |||||||||
 A4 A2 B2 | B4 A2 B2 | (A2 c2) B4 | (B4 A2) c2 | _c4 =B4 | c4 [G_d]4 | ([Ac]4 B2) [Bd]2 | %24
w: seg- nen, ihn|seg- nen sein|Le- * ben|||||
 d4 c2 cd | (e2 dc) B2 A2 | B4 B2 x2 | =A4 F4 | =A4 A4 | =A3 A A2 B2 | B4 B4 | B6 B2 | %32
w: ||||||||
 (A2 c2) _c4 | (B4 B4) | B2 x2 x4 | c6 _c2 | B4 (B2 =A2) | A2 AA A2 A2 | B3 B A2 B2 | A4 A4 | %40
w: ||||||||
 d4- d2 c2 | (d2 A2) A4 | (=G4 A4) | A4 G2 G2 | A4 x4 | A8 | A8 | G8 | A8 |] %49
w: |||||||||
V:3
!mf! E,4 A,4 | (A,2 G,2) _G,4 | _G,2 G,2 F,2 _F,2 | (_F,2 E,2) E,2 =E,2 | F,4!<(! F,2 F,2 | %5
w: Wohl dem,|wohl _ dem,|der den Her- ren|fürch- * tet und|auf sei- nen|
 G,>G, G,4!<)! =E,2 |!<(! F,4 F,2 F,2!<)! | =E,>E, E,2 z2 E,2 | F,4 ^F,2 F,2 | G,3 G, G,2!f! G,2 | %10
w: We- gen geht, und|auf sei- nen|We- gen geht, und|auf sei- nen|We- gen geht, und|
 G,4 A,2 A,2 | G,6 G,2 | G,4 z4 | z8 | z8 | z8 | z8 | z8 | z4 z2!f!"^Bass 1" C,2 | F,4 =E,2 C,2 | %20
w: auf sei- nen|We- gen|geht.||||||Der|Herr wird ihn|
 G,4 F,2 F,G, | A,2 G,F, E,2 =D,2 | E,>E, E,4!ff! E,2 | A,4 G,2 F,2 | B,4 A,2 A,B, | %25
w: seg- nen, dass er|se- he das Glück sein|Le- ben lang. Der|Herr wird ihn|seg- nen, dass er|
 C2 B,A, G,2 F,2 | G,3 G, G,2 z2 |!pp! F,4 C,4 | F,4 F,4 |!<(! F,3 F, F,2 F,2 | =E,4 E,4!<)! | %31
w: se- he das Glück sein|Le- ben lang.|Wohl dem,|wohl dem,|der den Her- ren|fürch- tet,|
!p! _E,6 E,2 | E,4 A,4 | (A,2 G,2 F,2 A,2) | G,2!mf! E,2 E,4 | E,4 A,4 | (A,2 G,2) _G,4 | %37
w: der den|Her- ren|fürch- * * *|tet. Wohl dem,|wohl dem,|wohl _ dem,|
 _G,2 G,G, F,2 _F,2 | _F,3 E, E,2!<(! =E,2 | F,4 C4!<)! | B,4- B,2!<(! A,2 | (A,2 C2) (E2 D2)!<)! | %42
w: er hat es gut, er|hat es gut, er|hat es|gut, _ er|hat _ es _|
 (D4 C4) | E,4 E,2 E,2 | E,4 z4 |!p! F,8 |"^dim." E,8 | [D,E,]8 | [C,E,]8 |] %49
w: gut! _|Er hat es|gut!|Wohl|ihm,|wohl|ihm.|
V:4
 x8 | x8 | x8 | x8 | x8 | x8 | x8 | x8 | x8 | x6 F,2 | E,4 F,2 F,2 | G,6 F,2 | E,4 x4 | x8 | x8 | %15
 x8 | x8 | x8 | x8 | x8 | x8 | x8 | x8 | x8 | x8 | x8 | x8 | x8 | x8 | x8 | x8 | x8 | x8 | x8 | %34
 x8 | x8 | x8 | x8 | x8 | x8 | x8 | x8 | x8 | x4 D,2 D,2 | C,4 x4 | x8 | x8 | x8 | x8 |] %49
V:5
!mf! A,,4 A,,4 | A,,4 A,,4 | A,,2 A,,2 A,,2 A,,2 | (A,,2 G,,2) A,,2 C,2 | F,,4!<(! F,,2 A,,2 | %5
w: |||||
 B,,>B,, B,,4!<)! C,2 |!<(! F,,4 F,,2 F,,2!<)! | G,,>G,, G,,2 z2 B,,2 | =A,,4 C,2 C,2 | %9
w: ||||
 =B,,3 B,, B,,2!f! G,,2 | C,4 F,,2 F,,2 | G,,4 G,,4 | C,4 z2!f! E,2 |"^Bass 2" A,4 G,2 F,2 | %14
w: |||* Der|Herr wird ihn|
 B,4 A,2 A,B, | C2 B,A, G,2 F,2 | E,2 G,2 F,2 E,2 |"^Bass 2" (E,2 =D,2 C,3) D, | E,2 G,2 F,2 =E,2 | %19
w: seg- nen, dass er|se- he das Glück sein|Le- ben lang, das|Glück _ _ sein|Le- ben lang, sein|
 (F,2 F,,2) C,4 | (=D,2 =E,2) (F,2 _E,2) | =D,4 G,,4 | (C,4 B,,2)!ff! E,2 | A,4 G,2 F,2 | %24
w: Le- * ben|lang, _ sein _|Le- ben|lang. _ _|_ _ _|
 B,4 A,2 A,B, | C2 B,A, G,2 F,2 | F,3 =E, E,2 z2 |!pp! F,,4 F,,4 | =D,4 F,4 | %29
w: |||||
!<(! =D,3 D, C,2 B,,2 | G,,4 G,,4!<)! |!p! G,,6 G,,2 | A,,4 A,,4 | B,,8 | E,2 z2 z4 | %35
w: ||||||
!mf! A,,4 A,,4 | A,,4 A,,4 | A,,4 A,,4 | (A,,3 G,,) A,,2!<(! A,,G,, | F,,4 F,4!<)! | %40
w: ||wohl dem,|wohl _ dem, er _|_ _|
 G,4- G,2 _G,2 | F,4 _F,4 | E,8 | E,,4 E,,2 E,,2 | A,,4 z4 |!p! D,8 |"^dim." A,,8 | E,,8 | A,,8 |] %49
w: |||||||||

